dist/svgs/devui-icons/op/add-fold.svg

<svg xmlns="http://www.w3.org/2000/svg" viewBox="0 0 16 16"><path d="M7 12v2H1V2h5l2 2h7v3h-2V6H7.394l-2-2H3v8h4zm4-1V8h2v3h3v2h-3v3h-2v-3H8v-2h3z"/></svg>

<?xml version="1.0" encoding="UTF-8"?>
<svg width="16px" height="16px" viewBox="0 0 16 16" version="1.1" xmlns="http://www.w3.org/2000/svg" xmlns:xlink="http://www.w3.org/1999/xlink">
    <title>操作/添加文件夹</title>
    <desc>Created with Sketch.</desc>
    <g id="操作/添加文件夹" stroke="none" stroke-width="1" fill="none" fill-rule="evenodd">
        <g>
            <path d="M7,12 L7,14 L1,14 L1,2 L6,2 L8,4 L15,4 L15,7 L13,7 L13,6 L7.39444872,6 L5.39444872,4 L3,4 L3,12 L7,12 Z M11,11 L11,8 L13,8 L13,11 L16,11 L16,13 L13,13 L13,16 L11,16 L11,13 L8,13 L8,11 L11,11 Z" id="形状" fill="#293040" fill-rule="nonzero"></path>
        </g>
    </g>
</svg>
